icons/linear-ele-nature-weather-moon-night.svg

<svg xmlns="http://www.w3.org/2000/svg" width="32px" height="32px" viewBox="0 0 32 32" version="1.1">
    <title>linear-ele-nature-weather-moon-night</title>
    <g id="linear-ele-nature-weather-moon-night" stroke-width="1" fill-rule="evenodd">
        <path d="M10.8714443,2.40939302 C11.726432,1.99250083 12.6256689,2.89220552 12.2083322,3.74697633 C11.4168737,5.36800676 11,7.15309422 11,9 C11,15.627417 16.372583,21 23,21 C24.8459532,21 26.6305325,20.5835558 28.2520057,19.7929251 C29.1067676,19.3761431 30.0059122,20.275306 29.5891127,21.1300594 C27.2606619,25.9051402 22.4082879,29 17,29 C9.2680135,29 3,22.7319865 3,15 C3,9.59110955 6.09558004,4.73810538 10.8714443,2.40939302 Z M9.386,5.72223395 L9.19368084,5.88377796 C6.58421731,8.11902066 5,11.4169582 5,15 C5,21.627417 10.372583,27 17,27 C20.58261,27 23.8800693,25.4161881 26.1149873,22.8072724 L26.277,22.6132339 L25.955414,22.687298 C25.1307544,22.864543 24.2860878,22.9676797 23.4293425,22.99353 L23,23 C15.2680135,23 9,16.7319865 9,9 C9,7.99544591 9.10603871,7.00561725 9.31307216,6.0431658 L9.386,5.72223395 Z" id="&#36335;&#24452;" fill-rule="nonzero" />
    </g>
</svg>

<svg xmlns="http://www.w3.org/2000/svg" viewBox="0 0 32 32"><path fill="currentColor" d="M10.871 2.41c.855-.417 1.755.482 1.337 1.337A11.936 11.936 0 0 0 11 9c0 6.627 5.373 12 12 12 1.846 0 3.63-.416 5.252-1.207.855-.417 1.754.482 1.337 1.337A13.997 13.997 0 0 1 17 29C9.268 29 3 22.732 3 15a13.999 13.999 0 0 1 7.871-12.59M9.386 5.721l-.192.162A11.99 11.99 0 0 0 5 15c0 6.627 5.373 12 12 12 3.583 0 6.88-1.584 9.115-4.193l.162-.194-.322.074c-.824.178-1.669.28-2.526.307L23 23C15.268 23 9 16.732 9 9c0-1.005.106-1.994.313-2.957z"/></svg>
